X:730
T:Lovely Mally
A:Wyresdale, Lancashire
B:H.S.J. Jackson, 1823
L:1/8
M:6/8
O:England
Z:Richard Robinson 
%%TranscriptionNotes:Some guesswork here owing to imperfect legibility
%%TUNEURL: http://www.leeds.ac.uk/music/Info/RRTuneBk/gettune/00000e5e.html
%%ID:00000e5e
K:D
F |\
DED dcd | AGF EFG | FED dcd | AGF E2F |\
DED dcd | AGF EFG | FAF GFA | FDD D2 ||
A |\
d2g gga | bgb aga | gag fgf | bge e2f | \
ded fga | bag fed | BAB d2B | AFD D2 ::
